X:1
T:GB/7a/12 God Rest You Merry Version 2 of 2
T:GB/7a/12 God Rest You Merry Version 2 of 2
T:Mrs Cranstone VIII 1911 Transcribed by Simon Furey and Lewis Jones
C:Mrs Cranstone VIII 1911
C:Transcribed by Simon Furey and Lewis Jones
L:1/8
M:4/4
K:D
V:1 treble 
V:1
 E2 | E2 B2 B2 A2 | G2 F2 E2 D2 | E2 F2 G2 A2 | B6 :| Bc | d3 F F2 G2 | A2 A2 G2 A2 | d2 d2 F2 G2 | %9
 A4 G2 A2 | B2 d2 cB A2 | B2 A2 G2 F2 |"^(a)" E2 F2 G2 E2 | A4 G2 A2 | B2 d2 cB A2 | B2 A2 G2 F2 | %16
 E6 |]"^(a) What she actually sang was" E2 F2 G2 E2 | G4 F2 G2 | A2 =c2 BA G2 | A2 G2 F2 E2 | D6 |] %22

